X:403
T:B403-  The Royal Ball
Q:1/4=120
L:1/4
M:4/4
K:Dm
A|d3/2f/ed|^c3c|d(c/B/)^c3/2d/|e3e|\
A/=B/ c/B/ (B/4c/4d/) (c/B/)|&G3E|(A/c/) (d/e/) (d/c/) (=B/A/)|\
A3||A|c(B/A/)c3/2 f/|d3(e/f/)|f(d/e/) (f/e/) (d/c/)|c3e|\
fA(d/c/) (=B3/4c/4)|B2(e/f/) e/d/|\
(^c/e/) (d/e/) (f/e/) (d3/4c/4)|d3|]
